icons/tvB.svg

<svg width="24" height="24" viewBox="0 0 24 24" fill="none" xmlns="http://www.w3.org/2000/svg">
<path d="M3.05005 16.55V10.55C3.05005 8.35005 4.85005 6.55005 7.05005 6.55005H17.05C19.25 6.55005 21.05 8.35005 21.05 10.55V16.55C21.05 18.75 19.25 20.55 17.05 20.55H7.05005C4.75005 20.55 3.05005 18.75 3.05005 16.55Z" fill="black"/>
<path fill-rule="evenodd" clip-rule="evenodd" d="M7.05005 7.30005C5.26426 7.30005 3.80005 8.76426 3.80005 10.55V16.55C3.80005 18.3482 5.17651 19.8 7.05005 19.8H17.05C18.8358 19.8 20.3 18.3358 20.3 16.55V10.55C20.3 8.76426 18.8358 7.30005 17.05 7.30005H7.05005ZM2.30005 10.55C2.30005 7.93584 4.43584 5.80005 7.05005 5.80005H17.05C19.6643 5.80005 21.8 7.93584 21.8 10.55V16.55C21.8 19.1643 19.6643 21.3 17.05 21.3H7.05005C4.32359 21.3 2.30005 19.1519 2.30005 16.55V10.55Z" fill="black"/>
<path fill-rule="evenodd" clip-rule="evenodd" d="M8.71967 3.01972C9.01256 2.72683 9.48744 2.72683 9.78033 3.01972L11.9 5.13939L14.0197 3.01972C14.3126 2.72683 14.7874 2.72683 15.0803 3.01972C15.3732 3.31261 15.3732 3.78749 15.0803 4.08038L12.6803 6.48038C12.5317 6.62906 12.3605 6.6958 12.2498 6.72744C12.1289 6.76197 12.0083 6.77505 11.9 6.77505C11.7917 6.77505 11.6711 6.76197 11.5502 6.72744C11.4395 6.6958 11.2683 6.62906 11.1197 6.48038L8.71967 4.08038C8.42678 3.78749 8.42678 3.31261 8.71967 3.01972Z" fill="black"/>
</svg>

<svg xmlns="http://www.w3.org/2000/svg" fill="none" viewBox="0 0 24 24">
  <path fill="#000" d="M3.05 16.55v-6c0-2.2 1.8-4 4-4h10c2.2 0 4 1.8 4 4v6c0 2.2-1.8 4-4 4h-10c-2.3 0-4-1.8-4-4Z"/>
  <path fill="#000" fill-rule="evenodd" d="M7.05 7.3a3.262 3.262 0 0 0-3.25 3.25v6c0 1.798 1.377 3.25 3.25 3.25h10a3.262 3.262 0 0 0 3.25-3.25v-6a3.262 3.262 0 0 0-3.25-3.25h-10ZM2.3 10.55A4.762 4.762 0 0 1 7.05 5.8h10a4.762 4.762 0 0 1 4.75 4.75v6a4.762 4.762 0 0 1-4.75 4.75h-10c-2.726 0-4.75-2.148-4.75-4.75v-6Z" clip-rule="evenodd"/>
  <path fill="#000" fill-rule="evenodd" d="M8.72 3.02a.75.75 0 0 1 1.06 0l2.12 2.12 2.12-2.12a.75.75 0 1 1 1.06 1.06l-2.4 2.4a.99.99 0 0 1-.43.247 1.282 1.282 0 0 1-.7 0 .99.99 0 0 1-.43-.247l-2.4-2.4a.75.75 0 0 1 0-1.06Z" clip-rule="evenodd"/>
</svg>
